svg/助手管理.svg

<svg width="24" height="24" viewBox="0 0 24 24" fill="none" xmlns="http://www.w3.org/2000/svg"><path d="M9.75 3.75H5.25C4.85218 3.75 4.47064 3.90804 4.18934 4.18934C3.90804 4.47064 3.75 4.85218 3.75 5.25V9.75C3.75 10.1478 3.90804 10.5294 4.18934 10.8107C4.47064 11.092 4.85218 11.25 5.25 11.25H9.75C10.1478 11.25 10.5294 11.092 10.8107 10.8107C11.092 10.5294 11.25 10.1478 11.25 9.75V5.25C11.25 4.85218 11.092 4.47064 10.8107 4.18934C10.5294 3.90804 10.1478 3.75 9.75 3.75ZM9.75 9.75H5.25V5.25H9.75V9.75ZM18.75 3.75H14.25C13.8522 3.75 13.4706 3.90804 13.1893 4.18934C12.908 4.47064 12.75 4.85218 12.75 5.25V9.75C12.75 10.1478 12.908 10.5294 13.1893 10.8107C13.4706 11.092 13.8522 11.25 14.25 11.25H18.75C19.1478 11.25 19.5294 11.092 19.8107 10.8107C20.092 10.5294 20.25 10.1478 20.25 9.75V5.25C20.25 4.85218 20.092 4.47064 19.8107 4.18934C19.5294 3.90804 19.1478 3.75 18.75 3.75ZM18.75 9.75H14.25V5.25H18.75V9.75ZM9.75 12.75H5.25C4.85218 12.75 4.47064 12.908 4.18934 13.1893C3.90804 13.4706 3.75 13.8522 3.75 14.25V18.75C3.75 19.1478 3.90804 19.5294 4.18934 19.8107C4.47064 20.092 4.85218 20.25 5.25 20.25H9.75C10.1478 20.25 10.5294 20.092 10.8107 19.8107C11.092 19.5294 11.25 19.1478 11.25 18.75V14.25C11.25 13.8522 11.092 13.4706 10.8107 13.1893C10.5294 12.908 10.1478 12.75 9.75 12.75ZM9.75 18.75H5.25V14.25H9.75V18.75ZM18.75 12.75H14.25C13.8522 12.75 13.4706 12.908 13.1893 13.1893C12.908 13.4706 12.75 13.8522 12.75 14.25V18.75C12.75 19.1478 12.908 19.5294 13.1893 19.8107C13.4706 20.092 13.8522 20.25 14.25 20.25H18.75C19.1478 20.25 19.5294 20.092 19.8107 19.8107C20.092 19.5294 20.25 19.1478 20.25 18.75V14.25C20.25 13.8522 20.092 13.4706 19.8107 13.1893C19.5294 12.908 19.1478 12.75 18.75 12.75ZM18.75 18.75H14.25V14.25H18.75V18.75Z" fill="#0D131A"/></svg>

<svg fill="none" viewBox="0 0 24 24"><path fill="#0D131A" d="M9.75 3.75h-4.5a1.5 1.5 0 0 0-1.5 1.5v4.5a1.5 1.5 0 0 0 1.5 1.5h4.5a1.5 1.5 0 0 0 1.5-1.5v-4.5a1.5 1.5 0 0 0-1.5-1.5m0 6h-4.5v-4.5h4.5zm9-6h-4.5a1.5 1.5 0 0 0-1.5 1.5v4.5a1.5 1.5 0 0 0 1.5 1.5h4.5a1.5 1.5 0 0 0 1.5-1.5v-4.5a1.5 1.5 0 0 0-1.5-1.5m0 6h-4.5v-4.5h4.5zm-9 3h-4.5a1.5 1.5 0 0 0-1.5 1.5v4.5a1.5 1.5 0 0 0 1.5 1.5h4.5a1.5 1.5 0 0 0 1.5-1.5v-4.5a1.5 1.5 0 0 0-1.5-1.5m0 6h-4.5v-4.5h4.5zm9-6h-4.5a1.5 1.5 0 0 0-1.5 1.5v4.5a1.5 1.5 0 0 0 1.5 1.5h4.5a1.5 1.5 0 0 0 1.5-1.5v-4.5a1.5 1.5 0 0 0-1.5-1.5m0 6h-4.5v-4.5h4.5z"/></svg>
